!!!ONB: MCCC : IFC0046_01 : Extracted Monophonic Melody
!!!COM: Chopin, Frédéric
!!!OPR: 2 Mazurkas
!!!OMV: 1
!!!SCT: B.16
!!!ODT: 1825///
**kern
*thru
*staff1
*clefG2
*k[f#c#g#d#]
*c#:
*M3/4
*MM128
8cc#
4b
4a
=2
8.g#
16e
4c#
4d
=3
8.e
16f#
4g#
4a
=4
8.g#
16e
4c#
4d
=5
8.e
16cc#
4b
4a
=6
8.g#
16e
4c#
4d
=7
8.e
16f#
4g#
4a
=8
4.g#
8e
8g#
8e[
=9
8e]
8ee
4dd#
4cc#
=10
8.b
16g#
4e
4f##
=11
8g#
8a
8a#
8b
8b#
8cc#
=12
8.b
16g#
4e
4f##
=13
8.g#
16ee
4dd#
4cc#
=14
8.b
16g#
4e
4f##
=15
8g#
8a
8a#
8cc#
8b
8dd#
=16
8ff#
8ee
8dd#
8ee
8ff#
8ff##
=17
4.gg#
8aa#
8gg#
8ff##
=18
8gg#
8aa#
8gg#
8ff##
8gg#
8aa#
=19
8gg#
8ff##
8gg#
8aa#
8gg#
8ff#
=20
8ee#
16r
16dd##
4ee#
4cc#
=21
4.ee#
8ff#
8ee#
8dd##
=22
8ee#
8ff#
8ee#
8dd##
8ee#
8ff##
=23
8aa#
8gg#
8ff#
8a#
8b#
8g#
=24
8dd#
16r
16ee#
8cc#
8ee#
8ff#
8ff##
=25
4.gg#
8aa#
8gg#
8ff##
=26
12gg#
12aa#
12gg#
12ff##
12gg#
12aa#
12gg#
12ff##
12gg#
=27
12aa#
12gg#
12ff##
12gg#
12aa#
12gg#
12ff##
12gg#
12ff#
=28
8ee#
16r
16dd##
4ee#
4cc#
=29
4.ee#
8ff#
8ee#
8dd##
=30
12ee#
12ff#
12ee#
12dd##
12ee#
12ff#
12ee#
12ff#
12ff##
=31
8aa#
8gg#
8ff#
8a#
8b#
8g#
=32
8dd#
16r
16ee#
4cc#
4b#
=33
2b
8a#
8g#
=34
8f##
8g#
4a#
4b[
=35
8.b]
16b#
4b#
4cc#
=36
8.ee#
16ff#
2cc#
=37
2cc#
8b
8a#
=38
8g##
8a#
4.ee
8dd#
=39
4g#
4cc##
4dd#
=40
8.ff##
16gg#
2dd#[
=41
8dd#]
8cc#
4ee#
4bb
=42
8aa#
8gg#
4ee#
4cc#
=43
8b
8cc#
4ee#
4aa#
=44
8gg#
8ff#
4cc#
8.dd#
16a#
=45
8b
8cc#
4ee#
4bb
=46
8.aa#
16gg#
4dd#
8.gg#
16ff#
=47
4cc#
8.ff#
16ee#
4b
=48
8ee#
8dd#
4cc#
4b
=49
8.a#
16a#
4c#
4a#
=50
8a
8g#
8g#
8f##
4g#
=51
8f#
16r
16f#
4G#
4f#[
=52
8f#]
8e#
8e#
8d##
4e#
=53
8.c#
16d#
8.d#
16c#
8.c#
16d#
=54
8.d#
16e#
8.e#
16f#
8.f#
16f##
=55
8.f##
16g#[
16g#]
16g#
16a#
16g#
8f##
8g#
=56
8dd#
16r
16ee#
4.cc#
8b#
=57
8a#
16r
16a#
2c#
=58
8a
8g#
8g#
8f##
4g#
=59
8f#
16r
16f#
4G#
4f#[
=60
8.f#]
16e#[
8.e#]
16d##
4e#
=61
8.c#
16d#
8.d#
16c#
8.c#
16d#
=62
8.d#
16e#
8.e#
16f#
8.f#
16f##
=63
8.f##
16g#
8.g#
16g##
8.g##
16a#
=64
8.a#
16b
8.b
16b#
8.b#
16cc#
=65
2.cc#
=66
2.cc#
=67
8e
8c#
4A
4B
=68
2cc#
4b
=69
2.a
=70
2a
4g
=71
[2.f#
=72
2.f#]
=73
8e#
8cc#
4b
4a
=74
8g#
8e#
4c#
4d
=75
8e#
8f#
4g#
4a
=76
8g#
8e#
4c#
4d
=77
8e#
8cc#
4b
4a
=78
8g#
8e#
4c#
4d
=79
8e#
8f#
4g#
4a
=80
4.g#
8c#
4g#
=81
8g#
16r
16ee
4dd#
4cc#
=82
8b
8g#
4e
4f##
=83
8g#
8a
8a#
8b
8b#
8cc#
=84
8b
8g#
4e
4f##
=85
8g#
16r
16ee
4dd#
4cc#
=86
8b
8g#
4e
4f##
=87
8g#
8a
8a#
8cc#
8b
8dd#
=88
8ff#
8ee
8dd#
8ee
8ff#
8ff##
=89
4.gg#
8aa#
8gg#
8ff##
=90
8gg#
8aa#
8gg#
8ff##
8gg#
8aa#
=91
8gg#
8ff##
8gg#
8aa#
8gg#
8ff#
=92
8ee#
16r
16dd##
4ee#
4cc#
=93
4.ee#
8ff#
8ee#
8dd##
=94
8ee#
8ff#
8ee#
8dd##
8ee#
8ff##
=95
8aa#
8gg#
8ff#
8a#
8b#
8g#
=96
8dd#
16r
16ee#
8cc#
8ee#
8ff#
8ff##
=97
4.gg#
8aa#
8gg#
8ff##
=98
8gg#
8aa#
8gg#
8ff##
8gg#
8aa#
=99
8gg#
8ff##
8gg#
8aa#
8gg#
8ff#
=100
8ee#
16r
16dd##
4ee#
4cc#
=101
4.ee#
8ff#
8ee#
8dd##
=102
8ee#
8eee#
8ddd#
8ccc#
8aa#
8ff#
=103
8ee#
16r
16dd#
8cc##
8dd#
8ff#
16r
16b#
=104
8dd#
16r
16cc#
8b#
16r
16cc#
8ee#
16r
16a#
=105
8g#
16r
16b#
8a#
16r
16g#
8.b#
16a#
=
8g#
16r
16b#
8a#
16r
16g#
8.b#
16a#
=106
8g#
8dd#
8cc##
16r
16dd
8ff#
16r
16b#
=107
8dd#
8cc#
8b#
16r
16cc#
8ee#
16r
16a#
=108
8g#
16r
16b#
8a#
16r
16g#
8.b#
16a#
=109
8g#
16r
16b#
8a#
16r
16g#
8.b#
16cc#
=110
8.r
16cc#
8b#
16r
16a#
8.cc#
16b#
=111
8a#
16r
16ee
8dd#
16r
16cc#
[4ee
=112
8.ee]
16cc#
8b#
16r
16a#
8.cc#
16b#
=113
8a#
16r
16ee
8dd#
16r
16cc#
8.ff#
16ee
=114
8dd#
16r
16dd#
8cc#
16r
16b#
8.dd#
16cc#
=115
8b#
16r
16ff#
8ee
16r
16dd#
[4ff#
=116
8.ff#]
16dd#
8cc#
16r
16b#
8.dd#
16cc#
=117
8b#
16r
16ff#
8ee
16r
16dd#
8ee
8ff#
=118
8gg#
8ccc#
4bb
4aa
=119
8gg#
16r
16ee
4cc#
4dd
=120
8ee
16r
16ff#
4gg#
4aa
=121
8gg#
16r
16ee
4cc#
4dd
=122
8ee
16r
16ee
4ee
4ee
=123
8ee
16r
16ee
4ee
4ee
=124
8ee
16r
16ee
4ee
4ee
=125
8ee
16r
16ee
4ee
4dd#
=126
8.e/
16d#
4.f#
8B#
=127
8.d#
16c#
4.e
8A
=128
8.G#
16A
4G#
[4G#
=129
8.G#]
16A
2G#
=130
8.e
16d#
4.f#
8B#
=131
8.d#
16c#
4.e
8A
=132
8.G#
16B
4G#
[4G#
=133
8.G#]
16A
[2G#
=134
8.G#]
16A
4G#
[4G#
=135
8.G#]
16A
[2G#
=136
8.G#]
16A
[2G#
=137
2.G#]
=138
2r
==
*-
